X:1
T:Brian Pollock's Fortieth
M:C|
L:1/8
Q:80
C:Michael Grey
S:March
K:HP
|: {g}f3/4e/4|
{g}d3/4f/4{gAGAG}A{g}G3/4d/4{c}d3/4A/4|
{g}B3/4A/4{g}d/4f3/4{ag}a3/2f/2|  !
{gf}ga3/4e/4{g}c/4e3/4{g}A3/4{d}c/4|
{g}f3/4g/4f/4{g}e3/4{Gdc}d{g}f3/4e/4{g}d3/4f/4{gAGAG}A{g}G3/4d/4{c}d3/4A
/4|
{g}B3/4A/4{g}d/4f3/4{ag}a3/2f/2|  !
{gf}g{aef}e3/4d/4{g}c/4e3/4a3/4g/4|
{afg}fd{gdG}d:| |:
{g}f3/4g/4|  !
{ag}a{fg}f3/4e/4{a}g3/4e/4{g}c/4e3/4|
{g}d/4f3/4{gAGAG}A{g}A{g}e3/4f/4|
{gf}ga3/4e/4c/4e3/4{gAGAG}A|  !
{g}f3/4g/4f/4{g}e3/4{Gdc}d{g}f3/4g/4|1 {ag}a{fg}f3/4e/4{a}g3/4e/4{g}c/4e
3/4|
{g}d/4f3/4{gAGAG}A{g}A{g}e3/4f/4|
{gf}g{aef}e3/4d/4{g}c/4e3/4a3/4g/4|  !
{afg}fd{gdG}d:|

